X:3
T:Ramblin' Rover
M:6/8
L:1/8
K:G
D D2E | "G" GGG A2B | A2G- G2d | d2B d2e | e2d- d |
Bd | "C"eee g2f | "G"e2d B2G | "Am"AAB A2G | "D"E3 |
D2E | "G "G2G A2B | A2G- Gdd | d2B d2e | e2d- d |
Bd | "C"e2e g2f | "G"e2d B2G | "Am"ABA "D"G2F | "G "G2 |]
W:
W:Well there's sober men and plenty, and drunkards barely twenty;
W:There are men over ninety that have never yet kissed a girl,
W:But give me a rambling rover, from Orkney down to Dover,
W:We'll roam the country over and together we'll face the world
W:
W:There's many that feign enjoyment from merciless employment
W:Their ambition was this deployment from the minute they left the school
W:And they save and scrape and ponder, while the rest go out and squander, 
W:See the world and rove and wander - and they're happier as a rule.
W:
W:Well there's sober men and plenty...
W:
W:I've roamed through all the nations, to delight in all creation
W:And I've tried a wee sensation where the company did prove kind.
W:When parting was no pleasure, I've drunk another measure
W:To the good friends that we treasure for they always are in our mind.
W:
W:Well there's sober men and plenty...
W:
W:If you're bent with arthritis, your bowels have got colitis
W:You've galloping ballicitus and you're thinking it's time you died.
W:If you've been a man of action, while you're lying there in traction
W:You may gain some satisfaction thinking "Jesus, at least I've tried"
W:
W:Well there's sober men and plenty...

%%newpage

